!!!COM: Béla Bartók
!!!OTL: [T344_Bar-w43p11-12m87-101]
**kern	**dynam	**kern	**dynam	**kern	**dynam	**kern	**dynam
*grp:A	*grp:A	*grp:A	*grp:A	*grp:B	*grp:B	*grp:B	*grp:B
*part4	*part4	*part3	*part3	*part2	*part2	*part1	*part1
*staff4	*staff4	*staff3	*staff3	*staff2	*staff2	*staff1	*staff1
*I"Violoncello	*I"Violoncello	*I"Viola	*I"Viola	*I"Violin II	*I"Violin II	*I"Violin I	*I"Violin I
*I'Vc.	*	*I'Vla.	*	*I'Vln. II	*	*I'Vln. I	*
*clefF4	*	*clefC3	*	*clefG2	*	*clefG2	*
*k[]	*	*k[]	*	*k[]	*	*k[]	*
*C:	*	*C:	*	*C:	*	*C:	*
*M4/4	*	*M4/4	*	*M4/4	*	*M4/4	*
=1	=1	=1	=1	=1	=1	=1	=1
!	!LO:DY:ed=brack	!	!LO:DY:ed=brack	!	!	!LO:TX:t=[quarter]=128	!
8GG^^	f	8G^^	ff	2r	.	2r	.
4E 4B-X	.	4e 4b-X	.	.	.	.	.
8GG	.	8G	.	.	.	.	.
4E~ 4B-	.	4e~ 4b-	.	4r	.	4r	.
4GG~^^ 4E 4B-	.	4G~^^ 4e 4b-	.	(20ffLL	ff	(20fffLL	ff
.	.	.	.	20ee	.	20eee	.
.	.	.	.	20gg-X	.	20ggg-X	.
.	.	.	.	20ff	.	20fff	.
.	.	.	.	20ggnJJ)	.	20gggnJJ)	.
=2	=2	=2	=2	=2	=2	=2	=2
8GG^^< 8G	.	8G	.	[2aa-X	.	[2aaa-X	.
4E 4B-X	.	8r	.	.	.	.	.
=-	=-	=:	=:	=-	=-	=-	=-
.	.	8G 8g^^	.	.	.	.	.
8GG 8G	.	4e 4b-X	.	.	.	.	.
4E~ 4B-	.	.	.	8aa-L]	.	8aaa-L]	.
.	.	8G 8g	.	(8gg-X	.	(8ggg-X	.
4GG~^^ 4E 4B-	.	4e~ 4b-	.	8ee-X)	.	8eee-X)	.
.	.	.	.	8dd-XJ	.	8ddd-XJ	.
=3	=3	=3	=3	=3	=3	=3	=3
8GG^^< 8G	.	4G~^^ 4e 4b-	.	2r	.	2r	.
.	.	.	.	.	.	.	.
4E 4B-X	.	.	.	.	.	.	.
=-	=-	=:	=:	=-	=-	=-	=-
.	.	8G^^ 8g	.	.	.	.	.
8GG 8G	.	4e 4b-X	.	.	.	.	.
*	*	*	*	*lig	*	*	*
!	!	!	!	!LO:TX:a:rj:t=IV	!	!	!
4E~ 4B-	.	.	.	(20fLL	.	(20ffLL	.
.	.	.	.	20e	.	20ee	.
.	.	.	.	20g-X	.	20gg-X	.
.	.	8G 8g	.	.	.	.	.
.	.	.	.	20f	.	20ff	.
.	.	.	.	20gnJJ)	.	20ggnJJ)	.
4GG~^^ 4E 4B-	.	4e~ 4b-	.	[4a-X	.	[4aa-X	.
!!LO:REH:t=90
=4	=4	=4	=4	=4	=4	=4	=4
8GG^^< 8G	.	4G~^^ 4e 4b-X	.	8a-L]	.	8aa-L]	.
4E 4B-X	.	.	.	(8g-X	.	(8gg-X	.
=-	=-	=:	=:	=-	=-	=-	=-
.	.	8G^^ 8g	.	8e-X)	.	8ee-X)	.
8GG 8G	.	4e 4b-	.	8d-XJ	.	8dd-XJ	.
4E~ 4B-	.	.	.	8r	.	8r	.
.	.	8G 8g	.	8e-L	.	8ee-L	.
4GG~^^ 4E 4B-	.	4e~ 4b-	.	8g-	.	8gg-	.
.	.	.	.	(8a-XJ	.	(8aa-XJ	.
*	*	*	*	*Xlig	*	*	*
=5	=5	=5	=5	=5	=5	=5	=5
8GG^^< 8G	.	4G~^^ 4e 4b-X	.	8cc-XL)	.	8ccc-XL)	.
4E 4B-X	.	.	.	(8a-X	.	(8aa-X	.
=-	=-	=:	=:	=-	=-	=-	=-
.	.	8G^^ 8g	.	8g-X)	.	8gg-X)	.
8GG 8G	.	4e 4b-	.	8cnJ	.	8ccnJ	.
4E~ 4B-	.	.	.	8d-X	.	8dd-X	.
.	.	8G 8g	.	([4.e-X	.	([4.ee-X	.
4GG~^^ 4E 4B-	.	4e~ 4b-	.	.	.	.	.
=6	=6	=6	=6	=6	=6	=6	=6
8GG^^< 8G	.	4G~^^ 4e 4b-X	.	8e-L]	.	8ee-L]	.
4E 4B-X	.	.	.	8g-X)	.	8gg-X)	.
=-	=-	=:	=:	=-	=-	=-	=-
.	.	8G^^ 8g	.	8c	.	8cc	.
8GG 8G	.	4e 4b-	.	8d-XJ	.	8dd-XJ	.
4E~ 4B-	.	.	.	4e-X	.	4ee-X	.
.	.	8G 8g	.	.	.	.	.
4GG~^^ 4E 4B-	.	4e~ 4b-	.	(20enLL	.	(20eenLL	.
.	.	.	.	20f	.	20ff	.
.	.	.	.	20gn	.	20ggn	.
.	.	.	.	20a	.	20aa	.
.	.	.	.	20b-XJJ)	.	20bb-XJJ)	.
=7	=7	=7	=7	=7	=7	=7	=7
8GG^^< 8G	.	4G~^^ 4e 4b-X	.	([2cc-X	.	[2ccc-X	.
4E 4B-X	.	.	.	.	.	.	.
=-	=-	=:	=:	=-	=-	=-	=-
.	.	8G^^ 8g	.	.	.	.	.
8GG 8G	.	4e 4b-	.	.	.	.	.
4E~ 4B-	.	.	.	8cc-L]	.	8ccc-L]	.
.	.	8G 8g	.	8ddnJ)	.	8dddnJ	.
4GG~^^ 4E 4B-	.	4e~ 4b-	.	8cnL	.	8ccnL	.
.	.	.	.	8d-XJ	.	8dd-XJ	.
=8	=8	=8	=8	=8	=8	=8	=8
8GG^^< 8G	.	4G~^^ 4e 4b-X	.	8e-X	.	8ee-X	.
4E 4B-X	.	.	.	(24enLL	.	(24eenLL	.
.	.	.	.	24f	.	24ff	.
.	.	.	.	24gJJ	.	24ggJJ	.
=-	=-	=:	=:	=-	=-	=-	=-
.	.	8G^^ 8g	.	[2a-X	.	[2aa-X	.
8GG 8G	.	4e 4b-	.	.	.	.	.
4E~ 4B-	.	.	.	.	.	.	.
.	.	8G 8g	.	.	.	.	.
4GG~^^ 4E 4B-	.	4e~ 4b-	.	8a-L])	.	8aa-L])	.
!	!	!	!	!LO:TX:t=P:problem:cross-bar beaming	!	!LO:TX:t=P:problem:cross-bar beaming	!
.	.	.	.	(8g-X	.	(8gg-X	.
!!LO:REH:t=95
=9	=9	=9	=9	=9	=9	=9	=9
8GG^^< 8G	.	4G~^^ 4e 4b-X	.	8e-X)	.	8ee-X)	.
4E 4B-X	.	.	.	8d-XJ	.	8dd-XJ	.
=-	=-	=:	=:	=-	=-	=-	=-
.	.	8G^^ 8g	.	4r	.	4r	.
8GG 8G	.	4e 4b-	.	.	.	.	.
*	*	*	*	*	*	*lig	*
!	!	!	!	!	!	!LO:TX:a:rj:t=IV	!
4E~ 4B-	.	.	.	(20fLL	.	(20fLL	.
.	.	.	.	20en	.	20e	.
.	.	.	.	20g-X	.	20g-X	.
.	.	8G 8g	.	.	.	.	.
.	.	.	.	20f	.	20f	.
.	.	.	.	20gnJJ)	.	20gnJJ)	.
4GG~^^ 4E 4B-	.	4e~ 4b-	.	([4a-X	.	([4a-X	.
=10	=10	=10	=10	=10	=10	=10	=10
4GG~^^ 4E 4B-X	.	8G^^	.	8a-L]	.	8a-L]	.
.	.	4e~ 4b-X	.	8g-XJ)	.	8g-XJ)	.
8GG^^< 8G	.	.	.	4r	.	8r	.
4E~ 4B-	.	8G	.	.	.	(20fLL	.
.	.	.	.	.	.	20e	.
.	.	.	.	.	.	20g-	.
.	.	4e~ 4b-	.	4r	.	.	.
.	.	.	.	.	.	20f	.
.	.	.	.	.	.	20gnJJ)	.
*	*	*	*	*	*	*Xlig	*
8GG 8G	.	.	.	.	.	8r	.
4GG~^^ 4E 4B-	.	8GL	.	(20BLL	.	(20fLL	.
.	.	.	.	20c	.	20e	.
.	.	.	.	20B-X	.	20g-X	.
.	.	8e~J 8b-	.	.	.	.	.
.	.	.	.	20Bn	.	20f	.
.	.	.	.	20AJJ)	.	20gnJJ)	.
=11	=11	=11	=11	=11	=11	=11	=11
2r	.	2r	.	8G#X^^<	.	8g#X^^<	.
.	.	.	.	4f 4b	.	4ff 4bb	.
.	.	.	.	8G#	.	8g#	.
4r	.	4r	.	4f~> 4b	.	4ff~ 4bb	.
(20d-XLL	.	(20dd-XLL	.	4G#~>^^> 4f 4b	.	4g#~^^ 4ff 4bb	.
20c	.	20cc	.	.	.	.	.
20dn	.	20ddn	.	.	.	.	.
20c#X	.	20cc#X	.	.	.	.	.
20d#XJJ)	.	20dd#XJJ)	.	.	.	.	.
=12	=12	=12	=12	=12	=12	=12	=12
[2e	.	[2ee	.	8G#X	.	8g#X^^<	.
.	.	.	.	8r	.	4ff 4bb	.
.	.	.	.	8G#^^	.	.	.
.	.	.	.	4f 4b	.	8g#	.
8eL]	.	8eeL]	.	.	.	4ff~ 4bb	.
(8dn	.	(8ddn	.	8G#	.	.	.
8B)	.	8b)	.	4f~> 4b	.	4g#~^^ 4ff 4bb	.
8AJ	.	8aJ	.	.	.	.	.
=13	=13	=13	=13	=13	=13	=13	=13
8r	.	8r	.	8G#X~>^^>	.	8g#X^^	.
(8AL	.	(8aL	.	8r	.	4ff 4bb	.
8B)	.	8b)	.	8G#^^	.	.	.
8dJ	.	8ddJ	.	4f 4b	.	8g#	.
(8eL	.	(8eeL	.	.	.	4ff~ 4bb	.
8g)	.	8gg)	.	8G#	.	.	.
8c#X	.	8cc#X	.	4f~> 4b	.	4g#~^^ 4ff 4bb	.
8d#XJ	.	8dd#XJ	.	.	.	.	.
!!LO:REH:t=100
=14	=14	=14	=14	=14	=14	=14	=14
(24B#XLL	.	(24b#XLL	.	4G#X~>^^ 4f 4b	.	8g#X^^	.
24c#X	.	24cc#X	.	.	.	.	.
24d#XJJ	.	24dd#XJJ	.	.	.	.	.
[4.e	.	[4.ee	.	.	.	4ff 4bb	.
=-	=-	=-	=-	=:	=:	=-	=-
.	.	.	.	8G#^^	.	.	.
.	.	.	.	4f 4b	.	8g#	.
8e])	.	8ee])	.	.	.	4ff~ 4bb	.
(8A#XL	.	(8a#XL	.	8G#	.	.	.
8c#)	.	8cc#)	.	4f~> 4b	.	4g#~^^ 4ff 4bb	.
8d#J	.	8dd#J	.	.	.	.	.
=15	=15	=15	=15	=15	=15	=15	=15
8cn	.	8ccn	.	4G#X~>^^ 4f 4b	.	8g#X^^	.
8r	.	8r	.	.	.	4ff 4bb	.
=-	=-	=-	=-	=:	=:	=-	=-
(20cLL	.	(20ccLL	.	8G#^^	.	.	.
20B	.	20b	.	.	.	.	.
20c#X	.	20cc#X	.	.	.	.	.
.	.	.	.	4f 4b	.	8g#	.
20dn	.	20ddn	.	.	.	.	.
20d#XJJ)	.	20dd#XJJ)	.	.	.	.	.
4r	.	4r	.	.	.	4ff~ 4bb	.
.	.	.	.	8G#	.	.	.
(20C#XLL	.	(20C#XLL	.	4f~>^^ 4b	.	8g#L	.
20BB#X	.	20Cn	.	.	.	.	.
20Dn	.	20Dn	.	.	.	.	.
.	.	.	.	.	.	8ffJ 8bb	.
20C#	.	20C#X	.	.	.	.	.
20D#XJJ)	.	20D#XJJ)	.	.	.	.	.
=	=	=	=	=	=	=	=
*-	*-	*-	*-	*-	*-	*-	*-
!!!system-decoration: [(s1,s2,s3,s4)]
!!!RDF**kern: < = below
!!!RDF**kern: > = above
!!!EED: Kelsey Lussier
!!!EEV: 2021/07/20
!!!EED2: Gabriella Vici
!!!EEV2: 2022/02/03
